static/assets/head_icons_png/man/bizi/1020697.svg

<svg xmlns="http://www.w3.org/2000/svg" width="6" height="9"><g transform="translate(-67.8 -29.9)"><path d="M69.7 38.1l.2.05.55-.05.2-.15h.05l.35-.25.2-.05.55.05v.05l-.6.15-.3.05h-.15l-.25.2-.25.1H70l-.3-.1v-.05m-.9-.4l.25.1.5.3h.05v.05l-.05-.05-.15-.05m0 0h-.05l-.1-.05-.25-.05-.7-.15-.05-.05.55-.05" fill="#823909"/><radialGradient id="a" gradientUnits="userSpaceOnUse" gradientTransform="matrix(.00212 .00005 0 .00175 70.2 39.1)" spreadMethod="pad" cx="0" cy="0" r="819.2" fx="0" fy="0"><stop offset="0" stop-color="#f39b61"/><stop offset="1" stop-color="#f8be98"/></radialGradient><path d="M72.25 36.1l-.9-.05-.1-.55.05.65-.05-.4q-.2-1-.15-2.2V31.9l1.05-1.15.2-.15q-.6 2-.45 3.6l.2 1.4v.1l.15.4" fill="url(#a)"/><radialGradient id="b" gradientUnits="userSpaceOnUse" gradientTransform="matrix(.00212 .00005 0 .00175 70.2 38.8)" spreadMethod="pad" cx="0" cy="0" r="819.2" fx="0" fy="0"><stop offset="0" stop-color="#f39b61"/><stop offset="1" stop-color="#f8be98"/></radialGradient><path d="M68.1 37.15v-.05h.1l.85.15.9.25h.25l.75-.3q.65-.25.55-.7l-.15-.45.9.05-.15-.4.1.05.15.7.2.65v.1l-.05.35-.1.15-.1.1-.55.2-.55.15-.6.35-.4.15h-.4l-.1-.05q-.8-.45-1.4-.6l-.2-.05v-.05q-.25-.15-.2-.35-.05-.2.2-.4m1.6 1l.3.1h.25l.25-.1.25-.2h.15l.3-.05.6-.15v-.05l-.55-.05-.2.05-.35.25h-.05l-.2.15-.55.05-.2-.05v.05m-.1 0v-.05h-.05l.05.05m-.8-.45l-.55.05.05.05.7.15.25.05.1.05h.05l.15.05-.5-.3-.25-.1" fill="url(#b)"/><radialGradient id="c" gradientUnits="userSpaceOnUse" gradientTransform="matrix(.0008 .00006 .00008 .00256 69.8 33.8)" spreadMethod="pad" cx="0" cy="0" r="819.2" fx="0" fy="0"><stop offset=".314" stop-color="#fff" stop-opacity=".431"/><stop offset="1" stop-color="#fff" stop-opacity="0"/></radialGradient><path d="M70.2 32.4l.15 1.45-.15 1.5v.3l-.05.05-.25.2-.2-.25v-.05l-.15-.3-.2-1.5q-.05-.9.15-1.45.05-.65.3-.6l.4.65" fill="url(#c)"/><radialGradient id="d" gradientUnits="userSpaceOnUse" gradientTransform="matrix(.00061 .00003 -.00002 .0005 69.8 36.6)" spreadMethod="pad" cx="0" cy="0" r="819.2" fx="0" fy="0"><stop offset=".314" stop-color="#fff" stop-opacity=".431"/><stop offset="1" stop-color="#fff" stop-opacity="0"/></radialGradient><path d="M69.3 36.6q0-.2.15-.3l.35-.1q.25 0 .35.15l.15.3-.15.3-.35.05-.35-.1-.15-.3" fill="url(#d)"/><linearGradient id="e" gradientUnits="userSpaceOnUse" gradientTransform="matrix(-.0002 -.00467 .00565 -.00003 70.1 33.5)" x1="-819.2" x2="819.2"><stop offset="0" stop-color="#fedec1"/><stop offset="1" stop-color="#fedec1" stop-opacity=".153"/></linearGradient><path d="M67.9 37.55l-.05-.35v-.1l.1-.65.25-.7V35.6l.1-1.4v-2.85q.05-.7.75-1.15l1.55-.2q.85.3 1.55.75L71.1 31.9v1.65q-.05 1.2.15 2.2l.05.4-.05-.65.1.55.15.45q.1.45-.55.7l-.75.3h-.25l-.9-.25-.85-.15h-.1v.05q-.25.2-.2.4m1.9-5.8q-.25-.05-.3.6-.2.55-.15 1.45l.2 1.5.15.3v.05l.2.25.25-.2.05-.05v-.3l.15-1.5-.15-1.45-.4-.65m-.35 5.15l.35.1.35-.05.15-.3-.15-.3q-.1-.15-.35-.15l-.35.1q-.15.1-.15.3l.15.3" fill="url(#e)"/><path d="M70.2 38.65h-.4" fill="none" stroke-width=".05" stroke-linecap="round" stroke-linejoin="round" stroke-miterlimit="3" stroke="#b76340" stroke-opacity=".502"/><radialGradient id="f" gradientUnits="userSpaceOnUse" gradientTransform="matrix(.00165 -.00021 .00053 .00241 71.7 34.15)" spreadMethod="pad" cx="0" cy="0" r="819.2" fx="210473" fy="0"><stop offset=".337" stop-color="#f9c29f"/><stop offset="1" stop-color="#fedec1" stop-opacity="0"/></radialGradient><path d="M73.45 34.55l-.9.7q-.35.05-.55.55v-.05l-.35-1.45.1-1.95v.25-.25q.65 1.3 1.25 1.55l.35.2.1.45" fill="url(#f)"/></g></svg>

<?xml version="1.0" encoding="utf-8"?>
<svg version="1.1" id="Layer_1"
xmlns="http://www.w3.org/2000/svg"
xmlns:xlink="http://www.w3.org/1999/xlink"
xmlns:author="http://www.sothink.com"
width="6px" height="9px"
xml:space="preserve">
<g id="462" transform="matrix(1, 0, 0, 1, -67.8, -29.9)">
<path style="fill:#823909;fill-opacity:1" d="M69.7,38.1L69.9 38.15L70.45 38.1L70.65 37.95L70.7 37.95L71.05 37.7L71.25 37.65L71.8 37.7L71.8 37.75L71.2 37.9L70.9 37.95L70.75 37.95L70.5 38.15L70.25 38.25L70 38.25L69.7 38.15L69.7 38.1M68.8,37.7L69.05 37.8L69.55 38.1L69.6 38.1L69.6 38.15L69.55 38.1L69.4 38.05M69.4,38.05L69.35 38.05L69.25 38L69 37.95L68.3 37.8L68.25 37.75L68.8 37.7" />
<radialGradient
id="RadialGradID_4041" gradientUnits="userSpaceOnUse" gradientTransform="matrix(0.00212097, 4.57764e-005, 0, 0.00175476, 70.2, 39.1)" spreadMethod ="pad" cx="0" cy="0" r="819.2" fx="0" fy="0" >
<stop  offset="0"  style="stop-color:#F39B61;stop-opacity:1" />
<stop  offset="1"  style="stop-color:#F8BE98;stop-opacity:1" />
</radialGradient>
<path style="fill:url(#RadialGradID_4041) " d="M72.25,36.1L71.35 36.05L71.25 35.5L71.3 36.15L71.25 35.75Q71.05 34.75 71.1 33.55L71.1 31.9L72.15 30.75L72.35 30.6Q71.75 32.6 71.9 34.2L72.1 35.6L72.1 35.7L72.25 36.1" />
<radialGradient
id="RadialGradID_4042" gradientUnits="userSpaceOnUse" gradientTransform="matrix(0.00212097, 4.57764e-005, 0, 0.00175476, 70.2, 38.8)" spreadMethod ="pad" cx="0" cy="0" r="819.2" fx="0" fy="0" >
<stop  offset="0"  style="stop-color:#F39B61;stop-opacity:1" />
<stop  offset="1"  style="stop-color:#F8BE98;stop-opacity:1" />
</radialGradient>
<path style="fill:url(#RadialGradID_4042) " d="M68.1,37.15L68.1 37.1L68.2 37.1L69.05 37.25L69.95 37.5L70.2 37.5L70.95 37.2Q71.6 36.95 71.5 36.5L71.35 36.05L72.25 36.1L72.1 35.7L72.2 35.75L72.35 36.45L72.55 37.1L72.55 37.2L72.5 37.55L72.4 37.7L72.3 37.8L71.75 38L71.2 38.15L70.6 38.5L70.2 38.65L69.8 38.65L69.7 38.6Q68.9 38.15 68.3 38L68.1 37.95L68.1 37.9Q67.85 37.75 67.9 37.55Q67.85 37.35 68.1 37.15M69.7,38.15L70 38.25L70.25 38.25L70.5 38.15L70.75 37.95L70.9 37.95L71.2 37.9L71.8 37.75L71.8 37.7L71.25 37.65L71.05 37.7L70.7 37.95L70.65 37.95L70.45 38.1L69.9 38.15L69.7 38.1L69.7 38.15M69.6,38.15L69.6 38.1L69.55 38.1L69.6 38.15M68.8,37.7L68.25 37.75L68.3 37.8L69 37.95L69.25 38L69.35 38.05L69.4 38.05L69.55 38.1L69.05 37.8L68.8 37.7" />
<radialGradient
id="RadialGradID_4043" gradientUnits="userSpaceOnUse" gradientTransform="matrix(0.000808716, 6.10352e-005, 7.62939e-005, 0.00256348, 69.8, 33.8)" spreadMethod ="pad" cx="0" cy="0" r="819.2" fx="0" fy="0" >
<stop  offset="0.313725"  style="stop-color:#FFFFFF;stop-opacity:0.431373" />
<stop  offset="1"  style="stop-color:#FFFFFF;stop-opacity:0" />
</radialGradient>
<path style="fill:url(#RadialGradID_4043) " d="M70.2,32.4L70.35 33.85L70.2 35.35L70.2 35.65L70.15 35.7L69.9 35.9L69.7 35.65L69.7 35.6L69.55 35.3L69.35 33.8Q69.3 32.9 69.5 32.35Q69.55 31.7 69.8 31.75L70.2 32.4" />
<radialGradient
id="RadialGradID_4044" gradientUnits="userSpaceOnUse" gradientTransform="matrix(0.000610352, 3.05176e-005, -1.52588e-005, 0.00050354, 69.8, 36.6)" spreadMethod ="pad" cx="0" cy="0" r="819.2" fx="0" fy="0" >
<stop  offset="0.313725"  style="stop-color:#FFFFFF;stop-opacity:0.431373" />
<stop  offset="1"  style="stop-color:#FFFFFF;stop-opacity:0" />
</radialGradient>
<path style="fill:url(#RadialGradID_4044) " d="M69.3,36.6Q69.3 36.4 69.45 36.3L69.8 36.2Q70.05 36.2 70.15 36.35L70.3 36.65L70.15 36.95L69.8 37L69.45 36.9L69.3 36.6" />
<linearGradient
id="LinearGradID_4045" gradientUnits="userSpaceOnUse" gradientTransform="matrix(-0.000198364, -0.00466919, 0.00564575, -3.05176e-005, 70.1, 33.5)" spreadMethod ="pad" x1="-819.2" y1="0" x2="819.2" y2="0" >
<stop  offset="0" style="stop-color:#FEDEC1;stop-opacity:1" />
<stop  offset="1" style="stop-color:#FEDEC1;stop-opacity:0.152941" />
</linearGradient>
<path style="fill:url(#LinearGradID_4045) " d="M67.9,37.55L67.85 37.2L67.85 37.1L67.95 36.45L68.2 35.75L68.2 35.7L68.2 35.6L68.3 34.2L68.3 31.35Q68.35 30.65 69.05 30.2L70.6 30Q71.45 30.3 72.15 30.75L71.1 31.9L71.1 33.55Q71.05 34.75 71.25 35.75L71.3 36.15L71.25 35.5L71.35 36.05L71.5 36.5Q71.6 36.95 70.95 37.2L70.2 37.5L69.95 37.5L69.05 37.25L68.2 37.1L68.1 37.1L68.1 37.15Q67.85 37.35 67.9 37.55M69.8,31.75Q69.55 31.7 69.5 32.35Q69.3 32.9 69.35 33.8L69.55 35.3L69.7 35.6L69.7 35.65L69.9 35.9L70.15 35.7L70.2 35.65L70.2 35.35L70.35 33.85L70.2 32.4L69.8 31.75M69.45,36.9L69.8 37L70.15 36.95L70.3 36.65L70.15 36.35Q70.05 36.2 69.8 36.2L69.45 36.3Q69.3 36.4 69.3 36.6L69.45 36.9" />
<path style="fill:none;stroke-width:0.05;stroke-linecap:round;stroke-linejoin:round;stroke-miterlimit:3;stroke:#B76340;stroke-opacity:0.501961" d="M70.2,38.65L69.8 38.65" />
<radialGradient
id="RadialGradID_4046" gradientUnits="userSpaceOnUse" gradientTransform="matrix(0.00164795, -0.000213623, 0.000534058, 0.00241089, 71.7, 34.15)" spreadMethod ="pad" cx="0" cy="0" r="819.2" fx="210473" fy="0" >
<stop  offset="0.337255"  style="stop-color:#F9C29F;stop-opacity:1" />
<stop  offset="1"  style="stop-color:#FEDEC1;stop-opacity:0" />
</radialGradient>
<path style="fill:url(#RadialGradID_4046) " d="M73.45,34.55L72.55 35.25Q72.2 35.3 72 35.8L72 35.75L71.65 34.3L71.75 32.35L71.75 32.6L71.75 32.35Q72.4 33.65 73 33.9L73.35 34.1L73.45 34.55" />
</g>
</svg>
